X: 8
T: Garryowen
N: page 2
N: heptatonic
R: jig
M: 6/8
L: 1/8
K: G
g/f/ \
| "G"edc BAG | B>cB Bgf | edc BAG | "D7"ABA Agf | "G"edc BAG |
 B>cB B2B/c/ | def gdB | "D7"A>BA A2 :: B/c/ | "G"d2B d2B | dec dgf |
"C"e2c e2c| efd e2f |"G"g2a b2a | gfe edB | def gdB | "D7"A>BA A2:|
